app/img/icons/fb.svg

<svg width="27px" height="27px" viewBox="0 0 54 54" version="1.1" xmlns="http://www.w3.org/2000/svg" xmlns:xlink="http://www.w3.org/1999/xlink">
    <g id="Symbols" stroke="none" stroke-width="1" fill="none" fill-rule="evenodd">
        <g id="item--fb" transform="translate(-853.000000, -17.000000)">
            <g id="footer">
                <g id="Group-7" transform="translate(532.000000, 16.000000)">
                    <g id="facebook-logo-button" transform="translate(321.000000, 1.000000)">
                        <path d="M26.81208,0 C12.02796,0 0,12.02796 0,26.81208 C0,41.59512 12.02796,53.62416 26.81208,53.62416 C41.59512,53.62416 53.62416,41.59512 53.62416,26.81208 C53.62416,12.02796 41.59728,0 26.81208,0 Z" id="Shape" fill="#645E6D" fill-rule="nonzero"></path>
                        <path d="M33.48,27.756 L29.11788,27.756 C29.11788,34.72524 29.11788,43.30368 29.11788,43.30368 L22.65408,43.30368 C22.65408,43.30368 22.65408,34.8084 22.65408,27.756 L19.58148,27.756 L19.58148,22.26096 L22.65408,22.26096 L22.65408,18.70668 C22.65408,16.16112 23.86368,12.18348 29.17728,12.18348 L33.96708,12.20184 L33.96708,17.53596 C33.96708,17.53596 31.05648,17.53596 30.49056,17.53596 C29.92464,17.53596 29.12004,17.81892 29.12004,19.03284 L29.12004,22.26204 L34.04484,22.26204 L33.48,27.756 Z" id="Path" fill="#04030C"></path>
                    </g>
                </g>
            </g>
        </g>
    </g>
</svg>

<svg width="27" height="27" viewBox="0 0 54 54" xmlns="http://www.w3.org/2000/svg"><g fill="none" fill-rule="evenodd"><path d="M26.812 0C12.028 0 0 12.028 0 26.812c0 14.783 12.028 26.812 26.812 26.812 14.783 0 26.812-12.029 26.812-26.812C53.624 12.028 41.597 0 26.812 0z" fill="#645E6D" fill-rule="nonzero"/><path d="M33.48 27.756h-4.362v15.548h-6.464V27.756h-3.073v-5.495h3.073v-3.554c0-2.546 1.21-6.524 6.523-6.524l4.79.019v5.334h-3.476c-.566 0-1.371.283-1.371 1.497v3.229h4.925l-.565 5.494z" fill="#04030C"/></g></svg>
